src/xmb/retrosystem/Casio - Loopy.svg

<?xml version="1.0" encoding="UTF-8" standalone="no"?>
<svg
   xmlns:dc="http://purl.org/dc/elements/1.1/"
   xmlns:cc="http://creativecommons.org/ns#"
   xmlns:rdf="http://www.w3.org/1999/02/22-rdf-syntax-ns#"
   xmlns:svg="http://www.w3.org/2000/svg"
   xmlns="http://www.w3.org/2000/svg"
   xmlns:sodipodi="http://sodipodi.sourceforge.net/DTD/sodipodi-0.dtd"
   xmlns:inkscape="http://www.inkscape.org/namespaces/inkscape"
   viewBox="0 0 341.33334 341.33334"
   height="256"
   width="256"
   xml:space="preserve"
   id="svg2"
   version="1.1"
   sodipodi:docname="Casio - Loopy.svg"
   inkscape:version="0.92.3 (2405546, 2018-03-11)"><sodipodi:namedview
     pagecolor="#ffffff"
     bordercolor="#666666"
     borderopacity="1"
     objecttolerance="10"
     gridtolerance="10"
     guidetolerance="10"
     inkscape:pageopacity="0"
     inkscape:pageshadow="2"
     inkscape:window-width="1920"
     inkscape:window-height="1001"
     id="namedview44"
     showgrid="false"
     inkscape:pagecheckerboard="true"
     inkscape:zoom="2.7656249"
     inkscape:cx="139.2697"
     inkscape:cy="112.46048"
     inkscape:window-x="-9"
     inkscape:window-y="-9"
     inkscape:window-maximized="1"
     inkscape:current-layer="svg2" /><metadata
     id="metadata8"><rdf:RDF><cc:Work
         rdf:about=""><dc:format>image/svg+xml</dc:format><dc:type
           rdf:resource="http://purl.org/dc/dcmitype/StillImage" /><dc:title /></cc:Work></rdf:RDF></metadata><defs
     id="defs6"><clipPath
       id="clipPath18"
       clipPathUnits="userSpaceOnUse"><path
         id="path16"
         d="M 0,256 H 256 V 0 H 0 Z" /></clipPath><clipPath
       id="clipPath26"
       clipPathUnits="userSpaceOnUse"><path
         id="path24"
         d="M 5.43105,194.876 H 250.569 V 61.1242 H 5.43105 Z" /></clipPath></defs><g
     id="g36"
     transform="matrix(1.3333333,0,0,-1.3333333,115.42506,98.832003)"><path
       inkscape:connector-curvature="0"
       d="m 0,0 c 0,0 156,8 156,-40 0,-48 -24,-92 -76,-64 0,0 -44,20 -88,0 -44,-20 -64,24 -64,44 0,20 -16,56 72,60"
       style="fill:#808080;fill-opacity:1;fill-rule:nonzero;stroke:none"
       id="path38" /></g><g
     id="g40"
     transform="matrix(1.3333333,0,0,-1.3333333,115.42506,92.832003)"><path
       inkscape:connector-curvature="0"
       d="m 0,0 c 0,0 156,8 156,-40 0,-48 -24,-92 -76,-64 0,0 -44,20 -88,0 -44,-20 -64,24 -64,44 0,20 -16,56 72,60"
       style="fill:#8c8c8c;fill-opacity:1;fill-rule:nonzero;stroke:none"
       id="path42" /></g><g
     id="g44"
     transform="matrix(1.3333333,0,0,-1.3333333,227.42573,196.832)"><path
       inkscape:connector-curvature="0"
       d="m 0,0 c 0,-5.523 -4.478,-10 -10,-10 -5.523,0 -10,4.477 -10,10 0,5.522 4.477,10 10,10 C -4.478,10 0,5.522 0,0"
       style="fill:#263979;fill-opacity:1;fill-rule:nonzero;stroke:none"
       id="path46" /></g><g
     id="g48"
     transform="matrix(1.3333333,0,0,-1.3333333,243.42573,164.832)"><path
       inkscape:connector-curvature="0"
       d="m 0,0 c 0,-5.523 -4.478,-10 -10,-10 -5.523,0 -10,4.477 -10,10 0,5.522 4.477,10 10,10 C -4.478,10 0,5.522 0,0"
       style="fill:#263979;fill-opacity:1;fill-rule:nonzero;stroke:none"
       id="path50" /></g><g
     id="g52"
     transform="matrix(1.3333333,0,0,-1.3333333,270.09239,143.49867)"><path
       inkscape:connector-curvature="0"
       d="m 0,0 c 0,-5.523 -4.478,-10 -10,-10 -5.523,0 -10,4.477 -10,10 0,5.522 4.477,10 10,10 C -4.478,10 0,5.522 0,0"
       style="fill:#263979;fill-opacity:1;fill-rule:nonzero;stroke:none"
       id="path54" /></g><g
     id="g56"
     transform="matrix(1.3333333,0,0,-1.3333333,302.09239,138.16534)"><path
       inkscape:connector-curvature="0"
       d="m 0,0 c 0,-5.523 -4.478,-10 -10,-10 -5.523,0 -10,4.477 -10,10 0,5.522 4.477,10 10,10 C -4.478,10 0,5.522 0,0"
       style="fill:#263979;fill-opacity:1;fill-rule:nonzero;stroke:none"
       id="path58" /></g><g
     id="g60"
     transform="matrix(1.3333333,0,0,-1.3333333,236.30599,124.5508)"><path
       inkscape:connector-curvature="0"
       d="m 0,0 c 1.656,-2.87 -0.878,-7.435 -5.66,-10.196 -4.783,-2.762 -10.004,-2.674 -11.661,0.196 -1.657,2.87 0.878,7.435 5.661,10.196 C -6.878,2.958 -1.657,2.87 0,0"
       style="fill:#eac500;fill-opacity:1;fill-rule:nonzero;stroke:none"
       id="path62" /></g><g
     id="g64"
     transform="matrix(1.3333333,0,0,-1.3333333,126.09173,156.832)"><path
       inkscape:connector-curvature="0"
       d="m 0,0 c 0,-15.464 -12.536,-28 -28,-28 -15.464,0 -28,12.536 -28,28 0,15.464 12.536,28 28,28 C -12.536,28 0,15.464 0,0"
       style="fill:#263979;fill-opacity:1;fill-rule:nonzero;stroke:none"
       id="path66" /></g><g
     id="g68"
     transform="matrix(1.3333333,0,0,-1.3333333,115.42506,146.16533)"><path
       inkscape:connector-curvature="0"
       d="m 0,0 h -8 c -2.209,0 -4,1.791 -4,4 v 8 c 0,2.209 -1.791,4 -4,4 h -8 c -2.209,0 -4,-1.791 -4,-4 V 4 c 0,-2.209 -1.791,-4 -4,-4 h -8 c -2.209,0 -4,-1.791 -4,-4 v -8 c 0,-2.209 1.791,-4 4,-4 h 8 c 2.209,0 4,-1.791 4,-4 v -8 c 0,-2.209 1.791,-4 4,-4 h 8 c 2.209,0 4,1.791 4,4 v 8 c 0,2.209 1.791,4 4,4 h 8 c 2.209,0 4,1.791 4,4 v 8 C 4,-1.791 2.209,0 0,0"
       style="fill:#354f9f;fill-opacity:1;fill-rule:nonzero;stroke:none"
       id="path70" /></g><g
     id="g72"
     transform="matrix(1.3333333,0,0,-1.3333333,91.425064,135.49867)"><path
       inkscape:connector-curvature="0"
       d="M 0,0 -2,4 -4,0 Z"
       style="fill:#263979;fill-opacity:1;fill-rule:nonzero;stroke:none"
       id="path74" /></g><g
     id="g76"
     transform="matrix(1.3333333,0,0,-1.3333333,86.091731,178.16533)"><path
       inkscape:connector-curvature="0"
       d="M 0,0 2,-4 4,0 Z"
       style="fill:#263979;fill-opacity:1;fill-rule:nonzero;stroke:none"
       id="path78" /></g><g
     id="g80"
     transform="matrix(1.3333333,0,0,-1.3333333,110.09173,159.49867)"><path
       inkscape:connector-curvature="0"
       d="M 0,0 4,2 0,4 Z"
       style="fill:#263979;fill-opacity:1;fill-rule:nonzero;stroke:none"
       id="path82" /></g><g
     id="g84"
     transform="matrix(1.3333333,0,0,-1.3333333,67.425065,154.16533)"><path
       inkscape:connector-curvature="0"
       d="M 0,0 -4,-2 0,-4 Z"
       style="fill:#263979;fill-opacity:1;fill-rule:nonzero;stroke:none"
       id="path86" /></g><path
     style="fill:none;fill-opacity:1;fill-rule:nonzero;stroke:#1a1a1a;stroke-width:1.99999994;stroke-miterlimit:4;stroke-dasharray:none"
     d="M 110.94336 69.123047 C 96.31836 69.123047 86.568359 69.623047 86.568359 69.623047 C 19.221006 72.68429 12.795156 94.485206 13.484375 113.51562 C 13.194796 120.95476 14.568359 128.23321 14.568359 134.12305 C 14.568359 154.12305 34.568364 198.12304 78.568359 178.12305 C 122.56836 158.12304 166.56836 178.12305 166.56836 178.12305 C 218.56836 206.12304 242.56836 162.12305 242.56836 114.12305 C 242.56836 113.65446 242.54897 113.1943 242.51953 112.73633 C 242.54215 111.69986 242.56836 110.66397 242.56836 109.62305 C 242.56836 73.623052 154.81836 69.123047 110.94336 69.123047 z "
     transform="scale(1.3333334)"
     id="path841" /></svg>

<svg xmlns="http://www.w3.org/2000/svg" xml:space="preserve" width="256" height="256" viewBox="0 0 341.333 341.333"><path d="M0 0s156 8 156-40-24-92-76-64c0 0-44 20-88 0s-64 24-64 44S-88-4 0 0" style="fill:gray;fill-opacity:1;fill-rule:nonzero;stroke:none" transform="matrix(1.33333 0 0 -1.33333 115.425 98.832)"/><path d="M0 0s156 8 156-40-24-92-76-64c0 0-44 20-88 0s-64 24-64 44S-88-4 0 0" style="fill:#8c8c8c;fill-opacity:1;fill-rule:nonzero;stroke:none" transform="matrix(1.33333 0 0 -1.33333 115.425 92.832)"/><path d="M0 0c0-5.523-4.478-10-10-10S-20-5.523-20 0s4.477 10 10 10S0 5.522 0 0" style="fill:#263979;fill-opacity:1;fill-rule:nonzero;stroke:none" transform="matrix(1.33333 0 0 -1.33333 227.426 196.832)"/><path d="M0 0c0-5.523-4.478-10-10-10S-20-5.523-20 0s4.477 10 10 10S0 5.522 0 0" style="fill:#263979;fill-opacity:1;fill-rule:nonzero;stroke:none" transform="matrix(1.33333 0 0 -1.33333 243.426 164.832)"/><path d="M0 0c0-5.523-4.478-10-10-10S-20-5.523-20 0s4.477 10 10 10S0 5.522 0 0" style="fill:#263979;fill-opacity:1;fill-rule:nonzero;stroke:none" transform="matrix(1.33333 0 0 -1.33333 270.092 143.499)"/><path d="M0 0c0-5.523-4.478-10-10-10S-20-5.523-20 0s4.477 10 10 10S0 5.522 0 0" style="fill:#263979;fill-opacity:1;fill-rule:nonzero;stroke:none" transform="matrix(1.33333 0 0 -1.33333 302.092 138.165)"/><path d="M0 0c1.656-2.87-.878-7.435-5.66-10.196-4.783-2.762-10.004-2.674-11.661.196s.878 7.435 5.661 10.196S-1.657 2.87 0 0" style="fill:#eac500;fill-opacity:1;fill-rule:nonzero;stroke:none" transform="matrix(1.33333 0 0 -1.33333 236.306 124.55)"/><path d="M0 0c0-15.464-12.536-28-28-28S-56-15.464-56 0s12.536 28 28 28S0 15.464 0 0" style="fill:#263979;fill-opacity:1;fill-rule:nonzero;stroke:none" transform="matrix(1.33333 0 0 -1.33333 126.092 156.832)"/><path d="M0 0h-8a4 4 0 0 0-4 4v8a4 4 0 0 1-4 4h-8a4 4 0 0 1-4-4V4a4 4 0 0 0-4-4h-8a4 4 0 0 1-4-4v-8a4 4 0 0 1 4-4h8a4 4 0 0 0 4-4v-8a4 4 0 0 1 4-4h8a4 4 0 0 1 4 4v8a4 4 0 0 0 4 4h8a4 4 0 0 1 4 4v8a4 4 0 0 1-4 4" style="fill:#354f9f;fill-opacity:1;fill-rule:nonzero;stroke:none" transform="matrix(1.33333 0 0 -1.33333 115.425 146.165)"/><path d="m0 0-2 4-2-4Z" style="fill:#263979;fill-opacity:1;fill-rule:nonzero;stroke:none" transform="matrix(1.33333 0 0 -1.33333 91.425 135.499)"/><path d="m0 0 2-4 2 4Z" style="fill:#263979;fill-opacity:1;fill-rule:nonzero;stroke:none" transform="matrix(1.33333 0 0 -1.33333 86.092 178.165)"/><path d="m0 0 4 2-4 2Z" style="fill:#263979;fill-opacity:1;fill-rule:nonzero;stroke:none" transform="matrix(1.33333 0 0 -1.33333 110.092 159.499)"/><path d="m0 0-4-2 4-2Z" style="fill:#263979;fill-opacity:1;fill-rule:nonzero;stroke:none" transform="matrix(1.33333 0 0 -1.33333 67.425 154.165)"/><path d="M110.943 69.123c-14.625 0-24.375.5-24.375.5-67.347 3.061-73.773 24.862-73.084 43.893-.29 7.439 1.084 14.717 1.084 20.607 0 20 20 64 64 44s88 0 88 0c52 28 76-16 76-64 0-.469-.019-.929-.048-1.387.022-1.036.048-2.072.048-3.113 0-36-87.75-40.5-131.625-40.5z" style="fill:none;fill-opacity:1;fill-rule:nonzero;stroke:#1a1a1a;stroke-width:1.99999994;stroke-miterlimit:4;stroke-dasharray:none" transform="scale(1.33333)"/></svg>
